X: 7977
T: Congress, The
R: reel
M: 4/4
K: Adorian
|:eAAG ABcd|eaaf gedg|eAAG ABcA|BGGF GABd|
eAAG ABcd|eaaf gedB|~c3 d (3efg ed|cdBc A2(3Bcd:|
|:eaag a2ag|ea~a2 gedg|egdg egdg|eaaf gedg|
eaag a2ag|ea~a2 gedB|~c3d eged|cABG A2:|

